assets/icons/24px/stroke/radio-pole-24px.svg

<svg width="24" height="24" viewBox="0 0 24 24" fill="none" xmlns="http://www.w3.org/2000/svg">
<path fill-rule="evenodd" clip-rule="evenodd" d="M6.20096 2.01868C6.58517 2.41542 6.57502 3.0485 6.17828 3.43271C4.65386 4.90901 3.71429 6.95467 3.71429 9.21434C3.71429 11.4325 4.61959 13.4442 6.09461 14.9138C6.48585 15.3036 6.48702 15.9367 6.09722 16.328C5.70742 16.7192 5.07425 16.7204 4.68301 16.3306C2.85043 14.5048 1.71429 11.9906 1.71429 9.21434C1.71429 6.38583 2.89352 3.82964 4.78693 1.996C5.18366 1.61179 5.81675 1.62194 6.20096 2.01868Z" fill="white"/>
<path fill-rule="evenodd" clip-rule="evenodd" d="M17.799 16.41C17.4148 16.0133 17.425 15.3802 17.8217 14.996C19.3461 13.5197 20.2857 11.474 20.2857 9.21437C20.2857 6.99621 19.3804 4.98452 17.9054 3.51494C17.5141 3.12513 17.513 2.49197 17.9028 2.10072C18.2926 1.70948 18.9257 1.70831 19.317 2.09811C21.1496 3.92394 22.2857 6.43811 22.2857 9.21437C22.2857 12.0429 21.1065 14.5991 19.2131 16.4327C18.8163 16.8169 18.1833 16.8068 17.799 16.41Z" fill="white"/>
<path fill-rule="evenodd" clip-rule="evenodd" d="M8.64496 4.45618C9.02917 4.85292 9.01902 5.486 8.62228 5.87021C7.7387 6.7259 7.19641 7.90871 7.19641 9.21435C7.19641 10.4961 7.71894 11.6591 8.57378 12.5108C8.96503 12.9006 8.9662 13.5338 8.57639 13.9251C8.18659 14.3163 7.55343 14.3175 7.16218 13.9277C5.94978 12.7197 5.19641 11.0542 5.19641 9.21435C5.19641 7.33987 5.97836 5.64652 7.23093 4.4335C7.62767 4.04929 8.26075 4.05944 8.64496 4.45618Z" fill="white"/>
<path fill-rule="evenodd" clip-rule="evenodd" d="M15.355 13.9725C14.9708 13.5758 14.981 12.9427 15.3777 12.5585C16.2613 11.7028 16.8036 10.52 16.8036 9.21437C16.8036 7.93265 16.2811 6.76956 15.4262 5.91787C15.035 5.52807 15.0338 4.8949 15.4236 4.50366C15.8134 4.11242 16.4466 4.11125 16.8378 4.50105C18.0502 5.70899 18.8036 7.37456 18.8036 9.21437C18.8036 11.0888 18.0216 12.7822 16.7691 13.9952C16.3723 14.3794 15.7393 14.3693 15.355 13.9725Z" fill="white"/>
<path d="M14.3214 9.21444C14.3214 10.4744 13.2821 11.4958 12 11.4958C10.7179 11.4958 9.67859 10.4744 9.67859 9.21444C9.67859 7.95449 10.7179 6.93311 12 6.93311C13.2821 6.93311 14.3214 7.95449 14.3214 9.21444Z" fill="white"/>
<path fill-rule="evenodd" clip-rule="evenodd" d="M12 9.49577C12.2105 9.49577 12.3214 9.3371 12.3214 9.21444C12.3214 9.09177 12.2105 8.93311 12 8.93311C11.7895 8.93311 11.6786 9.09177 11.6786 9.21444C11.6786 9.3371 11.7895 9.49577 12 9.49577ZM12 11.4958C13.2821 11.4958 14.3214 10.4744 14.3214 9.21444C14.3214 7.95449 13.2821 6.93311 12 6.93311C10.7179 6.93311 9.67859 7.95449 9.67859 9.21444C9.67859 10.4744 10.7179 11.4958 12 11.4958Z" fill="white"/>
<path fill-rule="evenodd" clip-rule="evenodd" d="M12 10.0715C12.5523 10.0715 13 10.5192 13 11.0715L13 20.3572C13 20.9095 12.5523 21.3572 12 21.3572C11.4477 21.3572 11 20.9095 11 20.3572L11 11.0715C11 10.5192 11.4477 10.0715 12 10.0715Z" fill="white"/>
</svg>

<svg width="24" height="24" fill="none" xmlns="http://www.w3.org/2000/svg"><path fill-rule="evenodd" clip-rule="evenodd" d="M6.201 2.019a1 1 0 0 1-.023 1.414 8.02 8.02 0 0 0-2.464 5.781c0 2.218.906 4.23 2.38 5.7a1 1 0 1 1-1.411 1.417 10.017 10.017 0 0 1-2.969-7.117 10.02 10.02 0 0 1 3.073-7.218 1 1 0 0 1 1.414.023zM17.799 16.41a1 1 0 0 1 .023-1.414 8.02 8.02 0 0 0 2.464-5.782c0-2.218-.906-4.23-2.38-5.7a1 1 0 1 1 1.411-1.416 10.017 10.017 0 0 1 2.969 7.116 10.02 10.02 0 0 1-3.073 7.219 1 1 0 0 1-1.414-.023z" fill="#fff"/><path fill-rule="evenodd" clip-rule="evenodd" d="M8.645 4.456a1 1 0 0 1-.023 1.414 4.635 4.635 0 0 0-.049 6.64 1 1 0 0 1-1.41 1.418 6.636 6.636 0 0 1 .068-9.495 1 1 0 0 1 1.414.023zm6.71 9.517a1 1 0 0 1 .023-1.415 4.635 4.635 0 0 0 .048-6.64A1 1 0 0 1 16.838 4.5a6.635 6.635 0 0 1-.069 9.494 1 1 0 0 1-1.414-.022z" fill="#fff"/><path d="M14.321 9.214c0 1.26-1.039 2.282-2.321 2.282-1.282 0-2.321-1.022-2.321-2.282s1.039-2.28 2.321-2.28c1.282 0 2.321 1.02 2.321 2.28z" fill="#fff"/><path fill-rule="evenodd" clip-rule="evenodd" d="M12 9.496c.21 0 .321-.159.321-.282 0-.122-.11-.28-.321-.28-.21 0-.321.158-.321.28 0 .123.11.282.321.282zm0 2c1.282 0 2.321-1.022 2.321-2.282S13.282 6.934 12 6.934c-1.282 0-2.321 1.02-2.321 2.28 0 1.26 1.039 2.282 2.321 2.282z" fill="#fff"/><path fill-rule="evenodd" clip-rule="evenodd" d="M12 10.072a1 1 0 0 1 1 1v9.285a1 1 0 1 1-2 0v-9.285a1 1 0 0 1 1-1z" fill="#fff"/></svg>
